!!!OTL: 868. Gefallen am Ehstand. / (Polterabendlied.)
!!!ARE: Europa, Mitteleuropa, Deutschland, Hessen, Ober - Lahnkreis
!!!SCT: E0868B
!!!TXL: @@DE
!!!YEM: Copyright 1995, estate of Helmut Schaffrath.
**kern	**text
*ICvox	*
*M2/4	*
*met(c)	*
*k[f#]	*
*G:	*
=1	=1
!LO:TX:a:t=Aus dem Oberlahnkreiſe (Allendorf, Elhoff, Genſungen rc. ) 1880.	!
{4g	Mir
4d	ge-
=2	=2
8e	-fällt
8f#	das
8g	Eh-
8b/	-ſtands-
=3	=3
(8a/L	-le-
16cc	.
16bJ)	.
4a	-ben
=4	=4
4g	beſ-
4a}	-ſer,
=5	=5
{8b	als
8dd	das
8cc	Klo-
8a	-ſter-
=6	=6
*M3/4	*
*met(3)	*
8b	-gehn,
8g	ja
4cc^	Klo-
8.ddL	-ſter
16ccJ	.
=7	=7
2.b}	gehn.
=8	=8
*M2/4	*
{4b	Jn
4b	das
=9	=9
4b	Klo-
4dd	-ſter
=10	=10
*M3/4	*
8.cc	mag,
16b	ja
4a	mag
4g	ich
=11	=11
2a	nicht,
4r}	.
=12	=12
*M2/4	*
{4b	denn
4a	ich
=13	=13
8b	bin
8dd	ʒur
8cc	Eh
8a	ver-
=14	=14
*M3/4	*
*met(3)	*
8b	-pflicht,
8g	ʒur
4cc^	Eh
8.ddL	ver-
16ccJ	.
=15	=15
2.b}	-pflicht.
=16	=16
*M2/4	*
{4b	Jn
4b	das
=17	=17
4b	Klo-
4dd	-ſter
=18	=18
*M3/4	*
8.cc	mag,
16b	ja
4a	mag
4g	ich
=19	=19
2a	nicht,
4r}	.
=20	=20
*M2/4	*
{4b	denn
4a	ich
=21	=21
8b	bin
8dd	ʒur
8cc	Eh
8a	ver-
=22	=22
*M3/4	*
*met(3)	*
8b	-pflicht,
8g	ʒur
4cc^	Eh
8.ddL	ver-
16ccJ	.
=23	=23
2.b}	-pflicht.
==	==
!!!AGN: Hochzeits -, Ehestands - Lied +++ Zeilenenden rhythm. vereinheitlicht+++
!!!ONB: ESAC (Essen Associative Code) Database: ERK2
!!!AMT: simple duple
!!!AIN: vox
!!!EED: Helmut Schaffrath
!!!EEV: 1.0
!!!GTL: Hochzeits- und Ehrstandslieder, nebst Nonnenklagen
!!!URL-scan: https://rosdok.uni-rostock.de/mcrviewer/recordIdentifier/rosdok_ppn745177662/iview2/phys_0667.iview2?x=193.8995864193107&y=218.03174773510545&scale=0.7029437510502773&rotation=0&layout=singlePageLayout
!!!ENC: Anna Maria Matuszewska
!!!EEV: 2024/12/18
*-	*-
